!!!COA: des Prez, Josquin
!!!CDT: ~1450-1521/08/27
!!!OTL@@FRE: Regretz sans fin
!!!AGN: Chanson
!!!SCT: NJE 30.9
!!!SCA: New Josquin Edition 30.9
!!!voices: 6
**kern	**text	**kern	**text	**kern	**text	**kern	**text	**kern	**text	**kern	**text
*staff6	*	*staff5	*	*staff4	*	*staff3	*	*staff2	*	*staff1	*
*Ivox	*	*Ivox	*	*Ivox	*	*Ivox	*	*Ivox	*	*Ivox	*
*I"Bassus	*	*I"Tenor	*	*I"Quinta pars	*	*I"Altus	*	*I"Sexta pars	*	*I"Superius	*
*I'B	*	*I'T	*	*I'Q	*	*I'Ct	*	*I'Sx	*	*I'S	*
*clefF4	*	*clefF4	*	*clefGv2	*	*clefGv2	*	*clefGv2	*	*clefG2	*
*k[]	*	*k[]	*	*k[]	*	*k[]	*	*k[]	*	*k[]	*
*M2/1	*	*M2/1	*	*M2/1	*	*M2/1	*	*M2/1	*	*M2/1	*
*met(C|)	*	*met(C|)	*	*met(C|)	*	*met(C|)	*	*met(C|)	*	*met(C|)	*
=1-	=1-	=1-	=1-	=1-	=1-	=1-	=1-	=1-	=1-	=1-	=1-
!	!	!	!	!	!	!	!	!	!	!LO:TX:Z=15:t=ABA form&colon; mm. 80-130=mm. 5-55	!
!	!	!LO:TX:Z=50:X=-30:t=Canon at the upper fourth	!	!	!	!	!	!	!	!	!
!	!	!LO:TX:Z=25:X=-30:t=(T-->Sex., 3 breves)	!	!	!	!	!	!	!	!	!
1D	Re-	0A	Re-	0r	.	1d	Re-	0r	.	1a	Re-
1D	-gretz	.	.	.	.	1d	-gretz	.	.	1a	-gretz
=2	=2	=2	=2	=2	=2	=2	=2	=2	=2	=2	=2
0F	sans	1A	-gretz	0r	.	1.c	sans	0r	.	0a	sans
.	.	[1c	sans	.	.	.	.	.	.	.	.
.	.	.	.	.	.	4B\	.	.	.	.	.
.	.	.	.	.	.	4A/	.	.	.	.	.
=3	=3	=3	=3	=3	=3	=3	=3	=3	=3	=3	=3
0E	fin,	1c]	.	0r	.	0e	fin,	0r	.	0g	fin,
.	.	1B	fin,	.	.	.	.	.	.	.	.
=4	=4	=4	=4	=4	=4	=4	=4	=4	=4	=4	=4
1r	.	0r	.	1D	Re-	0A	re-	0d	Re-	0r	.
1D	re-	.	.	1D	-gretz	.	.	.	.	.	.
=5	=5	=5	=5	=5	=5	=5	=5	=5	=5	=5	=5
0D	-gretz	0r	.	1.F	sans	1A	-gretz	1d	-gretz	0a	re-
.	.	.	.	.	.	[1d	sans	[1f	sans	.	.
.	.	.	.	4E/	.	.	.	.	.	.	.
.	.	.	.	4D/	.	.	.	.	.	.	.
=6	=6	=6	=6	=6	=6	=6	=6	=6	=6	=6	=6
1D	sans	0r	.	2.F/	.	1d]	.	1f]	.	1a	-gretz
.	.	.	.	4G/	.	.	.	.	.	.	.
1AA	fin,	.	.	1A	fin,	1c	fin,	1e	fin	1cc	sans
=7	=7	=7	=7	=7	=7	=7	=7	=7	=7	=7	=7
0r	.	1G	il	0r	.	1r	.	0r	.	1b	fin
.	.	1G	me	.	.	1d	il	.	.	1b	il
=8	=8	=8	=8	=8	=8	=8	=8	=8	=8	=8	=8
0r	.	1G	fault	0r	.	2e\	me	0r	.	2b\	me
.	.	.	.	.	.	2d\	fault	.	.	2b\	fault
.	.	[1A	en-	.	.	2.c\	en-	.	.	[1cc	en-
.	.	.	.	.	.	4B\	.	.	.	.	.
=9	=9	=9	=9	=9	=9	=9	=9	=9	=9	=9	=9
0r	.	1A]	.	0r	.	4c\	.	0r	.	1cc]	.
.	.	.	.	.	.	4d\	.	.	.	.	.
.	.	.	.	.	.	1e	.	.	.	.	.
.	.	1F	-du-	.	.	.	.	.	.	2.a/	-du-
.	.	.	.	.	.	2d\	-du-	.	.	.	.
.	.	.	.	.	.	.	.	.	.	4b\	.
=10	=10	=10	=10	=10	=10	=10	=10	=10	=10	=10	=10
1AA	il	1E	-rer,	2r	.	1e	-rer,	1c	il	4cc\	.
.	.	.	.	.	.	.	.	.	.	4dd\	.
.	.	.	.	1A	il	.	.	.	.	1cc	.
1F	me	1r	.	.	.	1A	il	1c	me	.	.
.	.	.	.	2F/	me	.	.	.	.	4b\	.
.	.	.	.	.	.	.	.	.	.	4a/	.
=11	=11	=11	=11	=11	=11	=11	=11	=11	=11	=11	=11
1E	fault	0r	.	1G	fault	2e\	me	1c	fault	1g	-rer,
.	.	.	.	.	.	2e\	fault	.	.	.	.
[1D	en-	.	.	1A	en-	[1f	en-	[1d	en-	2f/	en-
.	.	.	.	.	.	.	.	.	.	4d/	-du-
.	.	.	.	.	.	.	.	.	.	4e/	.
=12	=12	=12	=12	=12	=12	=12	=12	=12	=12	=12	=12
1D]	.	0r	.	1A	-du-	1f]	.	1d]	.	4f/	.
.	.	.	.	.	.	.	.	.	.	4g/	.
.	.	.	.	.	.	.	.	.	.	1a	.
1E	-du-	.	.	1E	-rer	1e	-du-	1B	-du-	.	.
.	.	.	.	.	.	.	.	.	.	2g#i/	.
=13	=13	=13	=13	=13	=13	=13	=13	=13	=13	=13	=13
2AA/	-rer	0A	Et	0r	.	2c\	-rer	1A	-rer	1a	-rer
2D\	Et	.	.	.	.	2A/	Et	.	.	.	.
1D	en	.	.	.	.	1d	en	1r	.	2r	.
.	.	.	.	.	.	.	.	.	.	2a/	Et
=14	=14	=14	=14	=14	=14	=14	=14	=14	=14	=14	=14
0F	grant	1A	en	0r	.	1.c	grant	0r	.	1a	en
.	.	[1c	grant	.	.	.	.	.	.	1a	grant
.	.	.	.	.	.	4B\	.	.	.	.	.
.	.	.	.	.	.	4A/	.	.	.	.	.
=15	=15	=15	=15	=15	=15	=15	=15	=15	=15	=15	=15
0E	dueil,	1c]	.	0r	.	0e	dueil,	0r	.	0g	dueil,
.	.	1B	dueil,	.	.	.	.	.	.	.	.
=16	=16	=16	=16	=16	=16	=16	=16	=16	=16	=16	=16
1r	.	0r	.	1D	Et	0A	et	0d	Et	0r	.
1D	et	.	.	1D	en	.	.	.	.	.	.
=17	=17	=17	=17	=17	=17	=17	=17	=17	=17	=17	=17
0D	en	0r	.	1.F	grant	1A	en	1d	en	0a	et
.	.	.	.	.	.	[1d	grant	[1f	grant	.	.
.	.	.	.	4E/	.	.	.	.	.	.	.
.	.	.	.	4D/	.	.	.	.	.	.	.
=18	=18	=18	=18	=18	=18	=18	=18	=18	=18	=18	=18
1D	grant	0r	.	2.F/	.	1d]	.	1f]	.	1a	en
.	.	.	.	4G/	.	.	.	.	.	.	.
1AA	dueil	.	.	1A	dueil	1c	dueil	1e	dueil	1cc	grant
=19	=19	=19	=19	=19	=19	=19	=19	=19	=19	=19	=19
1GG	mes	1B	mes	2r	.	2r	.	0r	.	1b	dueil
.	.	.	.	2D/	mes	2d\	mes	.	.	.	.
2D\	dou-	2A\	dou-	2D/	dou-	2f\	dou-	.	.	1r	.
2D\	-lens	2A\	-lens	2D/	-lens	2f\	-lens	.	.	.	.
=20	=20	=20	=20	=20	=20	=20	=20	=20	=20	=20	=20
1C	jours	2.c\	jours	1E	jours	1e	jours	0r	.	0r	.
.	.	4B\	.	.	.	.	.	.	.	.	.
1D	u-	4A\	.	1F	u-	1d	u-	.	.	.	.
.	.	4G\	.	.	.	.	.	.	.	.	.
.	.	[2A\	u-	.	.	.	.	.	.	.	.
=21	=21	=21	=21	=21	=21	=21	=21	=21	=21	=21	=21
0AA	-ser	2A\]	.	0E	-ser,	0c	-ser,	0r	.	0r	.
.	.	4G\	.	.	.	.	.	.	.	.	.
.	.	4F\	.	.	.	.	.	.	.	.	.
.	.	1E	-ser	.	.	.	.	.	.	.	.
=22	=22	=22	=22	=22	=22	=22	=22	=22	=22	=22	=22
0r	.	0r	.	2r	.	2r	.	1e	mes	2r	.
.	.	.	.	2C/	mes	2G/	mes	.	.	2g/	mes
.	.	.	.	2G/	dou-	2G/	dou-	2d\	dou-	2b-\	dou-
.	.	.	.	2G/	-lens	2G/	-lens	2d\	-lens	2b-i\	-lens
=23	=23	=23	=23	=23	=23	=23	=23	=23	=23	=23	=23
0r	.	0r	.	1F	jours	1A	jours	2.f\	jours	1a	jours
.	.	.	.	.	.	.	.	4e\	.	.	.
.	.	.	.	1G	u-	2.B-i\	u-	4d\	.	2g/	u-
.	.	.	.	.	.	.	.	4c\	.	.	.
.	.	.	.	.	.	.	.	[2d\	u-	[2b-i\	.
.	.	.	.	.	.	4c\	.	.	.	.	.
=24	=24	=24	=24	=24	=24	=24	=24	=24	=24	=24	=24
2r	.	1r	.	0D	-ser	2d\	-ser	2d\]	.	2b-\]	.
2D\	Par	.	.	.	.	2d\	Par	4c\	.	4a/	.
.	.	.	.	.	.	.	.	4B-i\	.	4g/	.
2D\	ung	1A	Par	.	.	2d\	ung	1A	-ser	1f	-ser
2D\	rap-	.	.	.	.	2d\	rap-	.	.	.	.
=25	=25	=25	=25	=25	=25	=25	=25	=25	=25	=25	=25
1F	-port	2A\	ung	0r	.	2c\	-port	0r	.	0r	.
.	.	2A\	rap-	.	.	4A/	.	.	.	.	.
.	.	.	.	.	.	4G/	.	.	.	.	.
1E	mes-	1G	-port	.	.	1B	mes-	.	.	.	.
=26	=26	=26	=26	=26	=26	=26	=26	=26	=26	=26	=26
1AA	-chant	1A	mes-	0r	.	2A/	-chant	0r	.	0r	.
.	.	.	.	.	.	2c\	dont	.	.	.	.
2C/	dont	1E	-chant	.	.	2c\	fuz	.	.	.	.
2C/	fuz	.	.	.	.	2c\	ser-	.	.	.	.
=27	=27	=27	=27	=27	=27	=27	=27	=27	=27	=27	=27
1GG	ser-	1G	dont	0r	.	2B\	-vi-	1r	.	0r	.
.	.	.	.	.	.	4G/	.	.	.	.	.
.	.	.	.	.	.	4A/	.	.	.	.	.
4GG/	-vi-	2G\	fuz	.	.	4B\	.	1d	Par	.	.
4AA/	.	.	.	.	.	4c\	.	.	.	.	.
4BB/	.	2G\	ser-	.	.	2B\	.	.	.	.	.
4C/	.	.	.	.	.	.	.	.	.	.	.
=28	=28	=28	=28	=28	=28	=28	=28	=28	=28	=28	=28
2D\	.	2F\	-vi-	0r	.	2A/	.	2d\	ung	0r	.
2BB/	.	4E\	.	.	.	2G/	.	2d\	rap-	.	.
.	.	4D\	.	.	.	.	.	.	.	.	.
1AA	.	1E	.	.	.	1A	.	1c	-port	.	.
=29	=29	=29	=29	=29	=29	=29	=29	=29	=29	=29	=29
0D	-e.	0D	-e.	1D	Par	0F	-e,	1d	mes-	2r	.
.	.	.	.	.	.	.	.	.	.	2a/	Par
.	.	.	.	2F/	ung	.	.	1A	-chant	2a/	ung
.	.	.	.	2F/	rap-	.	.	.	.	2a/	rap-
=30	=30	=30	=30	=30	=30	=30	=30	=30	=30	=30	=30
0r	.	0r	.	2E/	-port	1r	.	1c	dont	2g/	-port
.	.	.	.	2F/	mes-	.	.	.	.	2a/	mes-
.	.	.	.	2C/	-chant	2r	.	2c\	fuz	2e/	-chant
.	.	.	.	2C/	dont	2G/	dont	2c\	ser-	2g/	dont
=31	=31	=31	=31	=31	=31	=31	=31	=31	=31	=31	=31
0r	.	0r	.	2G/	fuz	2B\	fuz	2B\	-vi-	2g/	fuz
.	.	.	.	2E/	ser-	2c\	ser-	4A/	.	2g/	ser-
.	.	.	.	.	.	.	.	4G/	.	.	.
.	.	.	.	1D	-vi-	1d	-vi-	1A	.	4f#i/	-vi-
.	.	.	.	.	.	.	.	.	.	4g/	.
.	.	.	.	.	.	.	.	.	.	4a/	.
.	.	.	.	.	.	.	.	.	.	4f#i/	.
=32	=32	=32	=32	=32	=32	=32	=32	=32	=32	=32	=32
1GG	Mieulx	1r	.	1G	-e.	2B\	-e.	0G	-e.	[0g	-e.
.	.	.	.	.	.	2d\	Mieulx	.	.	.	.
2GG/	me	1G	Mieulx	2r	.	2d\	me	.	.	.	.
2GG/	voul-	.	.	2G/	Mieulx	2d\	voul-	.	.	.	.
=33	=33	=33	=33	=33	=33	=33	=33	=33	=33	=33	=33
0C	-droit,	1G	me	2G/	me	[0e	-droit,	0r	.	1g]	.
.	.	.	.	2G/	voul-	.	.	.	.	.	.
.	.	1G	voul-	1c	-droit,	.	.	.	.	2r	.
.	.	.	.	.	.	.	.	.	.	2g/	Mieulx
=34	=34	=34	=34	=34	=34	=34	=34	=34	=34	=34	=34
0r	.	1.c	-droit,	1C	mieulx	0e]	.	0r	.	2g/	me
.	.	.	.	.	.	.	.	.	.	2g/	voul-
.	.	.	.	2C/	me	.	.	.	.	[1cc	-droit,
.	.	2B\	de	2C/	voul-	.	.	.	.	.	.
=35	=35	=35	=35	=35	=35	=35	=35	=35	=35	=35	=35
0r	.	2A\	brief	2F/	-droit	0r	.	1r	.	1cc]	.
.	.	2G\	fi-	2E/	de	.	.	.	.	.	.
.	.	2F\	-ner	2F/	brief	.	.	1c	Mieulx	1r	.
.	.	2E\	ma	2G/	fi-	.	.	.	.	.	.
=36	=36	=36	=36	=36	=36	=36	=36	=36	=36	=36	=36
1AA	mieulx	2.F\	vi-	2A/	-ner	1r	.	1c	me	1a	mieulx
.	.	.	.	2A/	ma	.	.	.	.	.	.
.	.	4D\	.	.	.	.	.	.	.	.	.
2AA/	me	1E	.	1A	vi-	1A	mieulx	1c	voul-	2cc\	me
2AA/	voul-	.	.	.	.	.	.	.	.	2cc\	voul-
=37	=37	=37	=37	=37	=37	=37	=37	=37	=37	=37	=37
1.D	-droit	0D	-e	0F	-e	2A/	me	1.f	-droit	2.a/	-droit
.	.	.	.	.	.	2A/	voul-	.	.	.	.
.	.	.	.	.	.	.	.	.	.	4g/	.
.	.	.	.	.	.	3.F/V	-droit	.	.	4a/	.
.	.	.	.	.	.	.	.	.	.	4b\	.
2C/	de	.	.	.	.	6G/	.	2e\	de	2cc\	de
.	.	.	.	.	.	3A/Z	de	.	.	.	.
=38	=38	=38	=38	=38	=38	=38	=38	=38	=38	=38	=38
2BB/	brief	0r	.	0r	.	3.D/V	brief	2d\	brief	3.f/V	brief
2AA/	fi-	.	.	.	.	6E/	.	2c\	fi-	6g/	.
.	.	.	.	.	.	3F/Z	fi-	.	.	3a/Z	fi-
2GG/	-ner	.	.	.	.	2G/	-ner	2B\	-ner	2d/	-ner
2FF/	ma	.	.	.	.	2A/	ma	2A/	ma	[2a/	ma
=39	=39	=39	=39	=39	=39	=39	=39	=39	=39	=39	=39
1GG	vi-	0r	.	0r	.	2D/	vi-	2.B\	vi-	4a/]	.
.	.	.	.	.	.	.	.	.	.	4g/	.
.	.	.	.	.	.	2.d\	.	.	.	1g	vi-
.	.	.	.	.	.	.	.	4G/	.	.	.
1D	.	.	.	.	.	.	.	1A	.	.	.
.	.	.	.	.	.	4c\	.	.	.	.	.
.	.	.	.	.	.	2A/	.	.	.	2f#i/	.
=40	=40	=40	=40	=40	=40	=40	=40	=40	=40	=40	=40
0GG	-e	0r	.	0r	.	0B	-e	0G	-e	0g	-e
=41	=41	=41	=41	=41	=41	=41	=41	=41	=41	=41	=41
1D	Qu'ain-	1D	Qu'ain-	0r	.	2r	.	0r	.	0r	.
.	.	.	.	.	.	2f\	Qu'ain-	.	.	.	.
2D\	-si	1A	-si	.	.	2f\	-si	.	.	.	.
2D\	sans	.	.	.	.	2f\	sans	.	.	.	.
=42	=42	=42	=42	=42	=42	=42	=42	=42	=42	=42	=42
1.C	ces-	1A	sans	1c	Qu'ain-	1.e	ces-	0r	.	0r	.
.	.	[1G	ces-	2c\	-si	.	.	.	.	.	.
4BB/	.	.	.	2c\	sans	4d\	.	.	.	.	.
4AA/	.	.	.	.	.	4c\	.	.	.	.	.
=43	=43	=43	=43	=43	=43	=43	=43	=43	=43	=43	=43
1GG	-se,	2G\]	.	2B\	ces-	0d	-se,	0r	.	2r	.
.	.	4F\	.	4A/	.	.	.	.	.	1g	Qu'ain-
.	.	4E\	.	4G/	.	.	.	.	.	.	.
1r	.	1D	-se	1A	.	.	.	.	.	.	.
.	.	.	.	.	.	.	.	.	.	2f#i/	.
=44	=44	=44	=44	=44	=44	=44	=44	=44	=44	=44	=44
0r	.	0r	.	2G/	-se,	0r	.	1G	Qu'ain-	1g	-si,
.	.	.	.	2G/	qu'ain-	.	.	.	.	.	.
.	.	.	.	2G/	-si	.	.	1d	-si	1r	.
.	.	.	.	2G/	sans	.	.	.	.	.	.
=45	=45	=45	=45	=45	=45	=45	=45	=45	=45	=45	=45
0r	.	0r	.	2.F/	ces-	0r	.	1d	sans	2r	.
.	.	.	.	.	.	.	.	.	.	2a/	qu'ain-
.	.	.	.	4E/	.	.	.	.	.	.	.
.	.	.	.	4F/	.	.	.	[1c	ces-	2a/	-si
.	.	.	.	4G/	.	.	.	.	.	.	.
.	.	.	.	4A/	.	.	.	.	.	2a/	sans
.	.	.	.	4B\	.	.	.	.	.	.	.
=46	=46	=46	=46	=46	=46	=46	=46	=46	=46	=46	=46
1r	.	1r	.	1c	.	0r	.	2c\]	.	1.g	ces-
.	.	.	.	.	.	.	.	4B\	.	.	.
.	.	.	.	.	.	.	.	4A/	.	.	.
1GG	tel-	1G	tel-	1B	.	.	.	1G	-se	.	.
.	.	.	.	.	.	.	.	.	.	4f/	.
.	.	.	.	.	.	.	.	.	.	4e/	.
=47	=47	=47	=47	=47	=47	=47	=47	=47	=47	=47	=47
2D\	-le	2A\	-le	1A	-se	0r	.	0r	.	2f/	-se
2C/	dou-	2c\	dou-	.	.	.	.	.	.	2e/	tel-
1D	-leur	2B\	-leur	1r	.	.	.	.	.	2f/	-le
.	.	[2A\	mu-	.	.	.	.	.	.	2f/	dou-
=48	=48	=48	=48	=48	=48	=48	=48	=48	=48	=48	=48
0D	mu-	4A\]	.	0r	.	2r	.	0r	.	4f/	-leur
.	.	4G\	.	.	.	.	.	.	.	4e/	.
.	.	4F\	.	.	.	2d\	qu'ain-	.	.	4d/	.
.	.	4E\	.	.	.	.	.	.	.	4c/	.
.	.	1F	.	.	.	2d\	-si	.	.	4d/	mu-
.	.	.	.	.	.	.	.	.	.	4e/	.
.	.	.	.	.	.	2d\	sans	.	.	4f/	.
.	.	.	.	.	.	.	.	.	.	4d/	.
=49	=49	=49	=49	=49	=49	=49	=49	=49	=49	=49	=49
0AA	-er,	0E	-er,	1r	.	1.c	ces-	1r	.	1e	-er,
.	.	.	.	1A	tel-	.	.	1c	tel-	1cc	tel-
.	.	.	.	.	.	4B\	.	.	.	.	.
.	.	.	.	.	.	4A/	.	.	.	.	.
=50	=50	=50	=50	=50	=50	=50	=50	=50	=50	=50	=50
!	!	!	!	!LO:TX:Z=6:t=2nd note of m. lacking in all sources	!	!	!	!	!	!	!
0r	.	0r	.	2G/	-le	2B\	-se	2d\	-le	2b\	-le
.	.	.	.	2F/	dou-	2c\	tel-	2f\	dou-	2a/	dou-
.	.	.	.	2C/	-leur	2c\	-le	2e\	-leur	2cc\	-leur
.	.	.	.	[2G	mu-	2G/	dou-	[2d\	mu-	[2b\	mu-
=51	=51	=51	=51	=51	=51	=51	=51	=51	=51	=51	=51
1r	.	0r	.	4G]	.	1d	-leur	4d\]	.	4b\]	.
.	.	.	.	4A	.	.	.	4c\	.	4a/	.
.	.	.	.	2F	.	.	.	4B\	.	1a	.
.	.	.	.	.	.	.	.	4A/	.	.	.
1E	tel-	.	.	1E	.	1e	mu-	1B	.	.	.
.	.	.	.	.	.	.	.	.	.	2g#i/	.
=52	=52	=52	=52	=52	=52	=52	=52	=52	=52	=52	=52
!	!	!	!	!	!	!	!	!LO:N:vis=0	!	!	!
2.F\	-le	1r	.	1A	-er,	2c\	-er,	[0Al	-er.	[0al	-er.
.	.	.	.	.	.	2c\	tel-	.	.	.	.
4E\	dou-	.	.	.	.	.	.	.	.	.	.
2D\	-leur	1A	tel-	1r	.	2f\	-le	.	.	.	.
2D\	mu-	.	.	.	.	2f\	dou-	.	.	.	.
=53	=53	=53	=53	=53	=53	=53	=53	=53	=53	=53	=53
2AA/	-er,	2A\	-le	1A	tel-	2.e\	-leur	0A_	.	0a_	.
2AA/	tel-	2.c\	dou-	.	.	.	.	.	.	.	.
.	.	.	.	.	.	4d\	.	.	.	.	.
2AA/	-le	.	.	2c\	-le	2e\	.	.	.	.	.
.	.	4B\	.	.	.	.	.	.	.	.	.
2AA/	dou-	[2A\	-leur	2c\	dou-	[2f\	mu-	.	.	.	.
=54	=54	=54	=54	=54	=54	=54	=54	=54	=54	=54	=54
1D	-leur	4A\]	.	1d	-leur	4f\]	.	0A_	.	0a_	.
.	.	4G\	.	.	.	4e\	.	.	.	.	.
.	.	4F\	.	.	.	4d\	.	.	.	.	.
.	.	4E\	.	.	.	4c\	.	.	.	.	.
1D	mu-	1F	mu-	2.A/	mu-	4d\	.	.	.	.	.
.	.	.	.	.	.	4e\	.	.	.	.	.
.	.	.	.	.	.	4f\	.	.	.	.	.
.	.	.	.	4B\	.	4d\	.	.	.	.	.
=55	=55	=55	=55	=55	=55	=55	=55	=55	=55	=55	=55
0AAl	-er.	0El	-er.	0cl	-er.	0el	-er.	0A]	.	0a]	.
!!LO:LB:i:g=z
=56||	=56||	=56||	=56||	=56||	=56||	=56||	=56||	=56||	=56||	=56||	=56||
*>B	*	*>B	*	*>B	*	*>B	*	*>B	*	*>B	*
!!section: Tout plasir doncqs ie veulx habandonner
!!!OMD: Tout plasir doncqs ie veulx habandonner
*M2/1	*	*M2/1	*	*M2/1	*	*M2/1	*	*M2/1	*	*M2/1	*
*met(C|)	*	*met(C|)	*	*met(C|)	*	*met(C|)	*	*met(C|)	*	*met(C|)	*
1E	Tout	1E	Tout	0r	.	1e	Tout	0r	.	0r	.
1E	plai-	1G	plai-	.	.	2.B\	plai-	.	.	.	.
.	.	.	.	.	.	4c\	.	.	.	.	.
=57	=57	=57	=57	=57	=57	=57	=57	=57	=57	=57	=57
2.D\	-sir	1F	-sir	0r	.	1d	-sir	0r	.	0r	.
4C/	.	.	.	.	.	.	.	.	.	.	.
2AA/	doncqs	2E\	doncqs	.	.	2e\	doncqs	.	.	.	.
2E\	je	2G\	je	.	.	2B\	je	.	.	.	.
=58	=58	=58	=58	=58	=58	=58	=58	=58	=58	=58	=58
2AA/	veulx	2A\	veulx	0r	.	2c\	veulx	0r	.	0r	.
2E\	ha-	2G\	ha-	.	.	2B\	ha-	.	.	.	.
1AA	-ban-	1A	-ban-	.	.	1c	-ban-	.	.	.	.
=59	=59	=59	=59	=59	=59	=59	=59	=59	=59	=59	=59
1D	-don-	1F	-don-	2r	.	1d	-don-	1A	Tout	1a	Tout
.	.	.	.	2D/	Tout	.	.	.	.	.	.
1AA	-ner,	1E	-ner,	1A	plai-	1e	-ner,	1c	plai-	1a	plai-
=60	=60	=60	=60	=60	=60	=60	=60	=60	=60	=60	=60
0r	.	0r	.	1E	-sir	0r	.	1B	-sir	1g	-sir
.	.	.	.	2AA/	doncqs	.	.	2A/	doncqs	2a/	doncqs
.	.	.	.	2A/	je	.	.	2c\	je	2e/	je
=61	=61	=61	=61	=61	=61	=61	=61	=61	=61	=61	=61
0r	.	0r	.	2D/	veulx	0r	.	2d\	veulx	2f/	veulx
.	.	.	.	2A/	ha-	.	.	2c\	ha-	2e/	ha-
.	.	.	.	1D	-ban-	.	.	1d	-ban-	1f	-ban-
=62	=62	=62	=62	=62	=62	=62	=62	=62	=62	=62	=62
2r	.	1r	.	1E	-don-	1r	.	1B	-don-	1g	-don-
1E	Plus	.	.	.	.	.	.	.	.	.	.
.	.	1E	Plus	1AA	-ner,	2r	.	1A	-ner,	1a	-ner,
2C/	nulz	.	.	.	.	2e\	Plus	.	.	.	.
=63	=63	=63	=63	=63	=63	=63	=63	=63	=63	=63	=63
1D	sou-	1F	nulz	0r	.	1d	nulz	0r	.	0r	.
2E\	-las	1G	sou-	.	.	1B	sou-	.	.	.	.
2E\	je	.	.	.	.	.	.	.	.	.	.
=64	=64	=64	=64	=64	=64	=64	=64	=64	=64	=64	=64
2AA/	ne	2A\	-las	0r	.	2c\	-las	0r	.	0r	.
2E\	re-	2G\	je	.	.	2B\	je	.	.	.	.
2AA/	-quiers	2A\	ne	.	.	2c\	ne	.	.	.	.
2E\	don-	2G\	re-	.	.	2B\	re-	.	.	.	.
=65	=65	=65	=65	=65	=65	=65	=65	=65	=65	=65	=65
1AA	-ner	1A	-quiers	1r	.	1.c	-quiers	1r	.	1r	.
1r	.	1F	don-	1F	Plus	.	.	1A	Plus	2r	.
.	.	.	.	.	.	4B\	don-	.	.	2a/	Plus
.	.	.	.	.	.	4A/	.	.	.	.	.
=66	=66	=66	=66	=66	=66	=66	=66	=66	=66	=66	=66
0r	.	1E	-ner	1G	nulz	0e	-ner	1B	nulz	1g	nulz
.	.	1r	.	1A	sou-	.	.	1c	sou-	1e	sou-
=67	=67	=67	=67	=67	=67	=67	=67	=67	=67	=67	=67
0r	.	0r	.	2D/	-las	0r	.	2d\	-las	2f/	-las
.	.	.	.	2A/	je	.	.	2c\	je	2e/	je
.	.	.	.	2D/	ne	.	.	2d\	ne	2f/	ne
.	.	.	.	2A/	re-	.	.	2c\	re-	2e/	re-
=68	=68	=68	=68	=68	=68	=68	=68	=68	=68	=68	=68
0r	.	0r	.	1D	-quiers	0r	.	1d	-quiers	1f	-quiers
.	.	.	.	1E	don-	.	.	1B	don-	1g	don-
=69	=69	=69	=69	=69	=69	=69	=69	=69	=69	=69	=69
1AA	Puis	1E	Puis	1AA	-ner	2r	.	1A	-ner	1a	-ner
.	.	.	.	.	.	2A/	Puis	.	.	.	.
2D\	qu'il	2F\	qu'il	1r	.	2B\	qu'il	1r	.	1r	.
2C/	me	2G\	me	.	.	2c\	me	.	.	.	.
=70	=70	=70	=70	=70	=70	=70	=70	=70	=70	=70	=70
1F	fault	1A	fault	0r	.	1d	fault	0r	.	0r	.
1E	souf-	1B	souf-	.	.	1e	souf-	.	.	.	.
=71	=71	=71	=71	=71	=71	=71	=71	=71	=71	=71	=71
1.A	-frir	1.c	-frir	0r	.	2f\	-frir	0r	.	0r	.
.	.	.	.	.	.	2f\	par	.	.	.	.
.	.	.	.	.	.	2f\	seul-	.	.	.	.
2G\	par	2B\	par	.	.	[2e\	-le en-	.	.	.	.
=72	=72	=72	=72	=72	=72	=72	=72	=72	=72	=72	=72
2D\	seul-	2A\	seul-	2r	.	2e\]	.	1A	Puis	2r	.
2F\	-le en-	2A\	-le en-	2D/	Puis	2.d\	-vi-	.	.	2f/	Puis
1E	-vi-	1G	-vi-	2G/	qu'il	.	.	2B\	qu'il	2g/	qu'il
.	.	.	.	.	.	4c\	.	.	.	.	.
.	.	.	.	2C/	me	2e\	.	2c\	me	2g/	me
=73	=73	=73	=73	=73	=73	=73	=73	=73	=73	=73	=73
1D	-e&colon;	0A	-e&colon;	4F/	fault	2f\	-e,	1d	fault	4f/	fault
.	.	.	.	4G/	.	.	.	.	.	4g/	.
.	.	.	.	2A/	.	1d	souf-	.	.	4a/	.
.	.	.	.	.	.	.	.	.	.	4b\	.
1r	.	.	.	2AA/	souf-	.	.	1e	souf-	1cc	souf-
.	.	.	.	2A/	.	2c\	.	.	.	.	.
=74	=74	=74	=74	=74	=74	=74	=74	=74	=74	=74	=74
0r	.	0r	.	2D/	-frir	2d\	-frir	1.f	-frir	1.a	-frir
.	.	.	.	2.F/	par	2.A/	par	.	.	.	.
.	.	.	.	4E/	.	4B\	.	.	.	.	.
.	.	.	.	2C/	.	2c\	.	2e\	par	2g/	par
=75	=75	=75	=75	=75	=75	=75	=75	=75	=75	=75	=75
0r	.	0r	.	2D/	seul-	2F/	seul-	2d\	seul-	2f/	seul-
.	.	.	.	2BB/	-le en-	2G/	-le en-	2d\	-le en-	2d/	-le en-
.	.	.	.	1AA	-vi-	1A	-vi-	1c#i	-vi-	1e	-vie&colon;
=76	=76	=76	=76	=76	=76	=76	=76	=76	=76	=76	=76
1D	Re-	0A	Re-	1D	-e&colon;	1D	-e&colon;	0d	-e&colon;	1a	Re-
1D	-gretz	.	.	1r	.	1d	Re-	.	.	1a	-gretz
=77	=77	=77	=77	=77	=77	=77	=77	=77	=77	=77	=77
0F	sans	1A	-gretz	0r	.	1.c	-gretz	0r	.	0a	sans
.	.	[1c	sans	.	.	.	.	.	.	.	.
.	.	.	.	.	.	4B\	sans	.	.	.	.
.	.	.	.	.	.	4A/	.	.	.	.	.
=78	=78	=78	=78	=78	=78	=78	=78	=78	=78	=78	=78
0E	fin,	1c]	.	0r	.	0e	fin,	0r	.	0g	fin,
.	.	1B	fin,	.	.	.	.	.	.	.	.
=79	=79	=79	=79	=79	=79	=79	=79	=79	=79	=79	=79
1r	.	0r	.	1D	Re-	0A	re-	0d	Re-	0r	.
1D	re-	.	.	1D	-gretz	.	.	.	.	.	.
=80	=80	=80	=80	=80	=80	=80	=80	=80	=80	=80	=80
0D	-gretz	0r	.	1.F	sans	1A	-gretz	1d	-gretz	0a	re-
.	.	.	.	.	.	[1d	sans	[1f	sans	.	.
.	.	.	.	4E/	.	.	.	.	.	.	.
.	.	.	.	4D/	.	.	.	.	.	.	.
=81	=81	=81	=81	=81	=81	=81	=81	=81	=81	=81	=81
1D	sans	0r	.	2.F/	.	1d]	.	1f]	.	1a	gretz
.	.	.	.	4G/	.	.	.	.	.	.	.
1AA	fin,	.	.	1A	fin,	1c	fin,	1e	fin	1cc	sans
=82	=82	=82	=82	=82	=82	=82	=82	=82	=82	=82	=82
0r	.	1G	il	0r	.	1r	.	0r	.	1b	fin
.	.	1G	me	.	.	1d	il	.	.	1b	il
=83	=83	=83	=83	=83	=83	=83	=83	=83	=83	=83	=83
0r	.	1G	fault	0r	.	2e\	me	0r	.	2b\	me
.	.	.	.	.	.	2d\	fault	.	.	2b\	fault
.	.	[1A	en-	.	.	2.c\	en-	.	.	[1cc	en-
.	.	.	.	.	.	4B\	.	.	.	.	.
=84	=84	=84	=84	=84	=84	=84	=84	=84	=84	=84	=84
0r	.	1A]	.	0r	.	4c\	.	0r	.	1cc]	.
.	.	.	.	.	.	4d\	.	.	.	.	.
.	.	.	.	.	.	1e	.	.	.	.	.
.	.	1F	-du-	.	.	.	.	.	.	2.a/	-du-
.	.	.	.	.	.	2d\	-du-	.	.	.	.
.	.	.	.	.	.	.	.	.	.	4b\	.
=85	=85	=85	=85	=85	=85	=85	=85	=85	=85	=85	=85
1AA	il	1E	-rer,	2r	.	1e	-rer,	1c	il	4cc\	.
.	.	.	.	.	.	.	.	.	.	4dd\	.
.	.	.	.	1A	il	.	.	.	.	1cc	.
1F	me	1r	.	.	.	1A	il	1c	me	.	.
.	.	.	.	2F/	me	.	.	.	.	4b\	.
.	.	.	.	.	.	.	.	.	.	4a/	.
=86	=86	=86	=86	=86	=86	=86	=86	=86	=86	=86	=86
1E	fault	0r	.	1G	fault	2e\	me	1c	fault	1g	-rer,
.	.	.	.	.	.	2e\	fault	.	.	.	.
[1D	en-	.	.	1A	en-	[1f	en-	[1d	en-	2f/	en-
.	.	.	.	.	.	.	.	.	.	4d/	-du-
.	.	.	.	.	.	.	.	.	.	4e/	.
=87	=87	=87	=87	=87	=87	=87	=87	=87	=87	=87	=87
1D]	.	0r	.	1A	-du-	1f]	.	1d]	.	4f/	.
.	.	.	.	.	.	.	.	.	.	4g/	.
.	.	.	.	.	.	.	.	.	.	1a	.
1E	-du-	.	.	1E	-rer	1e	-du-	1B	-du-	.	.
.	.	.	.	.	.	.	.	.	.	2g#i/	.
=88	=88	=88	=88	=88	=88	=88	=88	=88	=88	=88	=88
2AA/	-rer	0A	Et	0r	.	2c\	-rer	1A	-rer	1a	-rer
2D\	Et	.	.	.	.	2A/	Et	.	.	.	.
1D	en	.	.	.	.	1d	en	1r	.	2r	.
.	.	.	.	.	.	.	.	.	.	2a/	Et
=89	=89	=89	=89	=89	=89	=89	=89	=89	=89	=89	=89
0F	grant	1A	en	0r	.	1.c	grant	0r	.	1a	on
.	.	[1c	grant	.	.	.	.	.	.	1a	grant
.	.	.	.	.	.	4B\	.	.	.	.	.
.	.	.	.	.	.	4A/	.	.	.	.	.
=90	=90	=90	=90	=90	=90	=90	=90	=90	=90	=90	=90
0E	dueil,	1c]	.	0r	.	0e	dueil,	0r	.	0g	dueil,
.	.	1B	dueil,	.	.	.	.	.	.	.	.
=91	=91	=91	=91	=91	=91	=91	=91	=91	=91	=91	=91
1r	.	0r	.	1D	Et	0A	et	0d	Et	0r	.
1D	et	.	.	1D	en	.	.	.	.	.	.
=92	=92	=92	=92	=92	=92	=92	=92	=92	=92	=92	=92
0D	en	0r	.	1.F	grant	1A	en	1d	en	0a	et
.	.	.	.	.	.	[1d	grant	[1f	grant	.	.
.	.	.	.	4E/	.	.	.	.	.	.	.
.	.	.	.	4D/	.	.	.	.	.	.	.
=93	=93	=93	=93	=93	=93	=93	=93	=93	=93	=93	=93
1D	grant	0r	.	2.F/	.	1d]	.	1f]	.	1a	en
.	.	.	.	4G/	.	.	.	.	.	.	.
1AA	dueil	.	.	1A	dueil	1c	dueil	1e	dueil	1cc	grant
=94	=94	=94	=94	=94	=94	=94	=94	=94	=94	=94	=94
1GG	mes	1B	mes	2r	.	2r	.	0r	.	1b	dueil
.	.	.	.	2D/	mes	2d\	mes	.	.	.	.
2D\	dou-	2A\	dou-	2D/	dou-	2f\	dou-	.	.	1r	.
2D\	-lens	2A\	-lens	2D/	-lens	2f\	-lens	.	.	.	.
=95	=95	=95	=95	=95	=95	=95	=95	=95	=95	=95	=95
1C	jours	2.c\	jours	1E	jours	1e	jours	0r	.	0r	.
.	.	4B\	.	.	.	.	.	.	.	.	.
1D	u-	4A\	.	1F	u-	1d	u-	.	.	.	.
.	.	4G\	.	.	.	.	.	.	.	.	.
.	.	[2A\	u-	.	.	.	.	.	.	.	.
=96	=96	=96	=96	=96	=96	=96	=96	=96	=96	=96	=96
0AA	-ser	2A\]	.	0E	-ser,	0c	-ser,	0r	.	0r	.
.	.	4G\	.	.	.	.	.	.	.	.	.
.	.	4F\	.	.	.	.	.	.	.	.	.
.	.	1E	-ser	.	.	.	.	.	.	.	.
=97	=97	=97	=97	=97	=97	=97	=97	=97	=97	=97	=97
0r	.	0r	.	2r	.	2r	.	1e	mes	2r	.
.	.	.	.	2C/	mes	2G/	mes	.	.	2g/	mes
.	.	.	.	2G/	dou-	2G/	dou-	2d\	dou-	2b-\	dou-
.	.	.	.	2G/	-lens	2G/	-lens	2d\	-lens	2b-i\	-lens
=98	=98	=98	=98	=98	=98	=98	=98	=98	=98	=98	=98
0r	.	0r	.	1F	jours	1A	jours	2.f\	jours	1a	jours
.	.	.	.	.	.	.	.	4e\	.	.	.
.	.	.	.	1G	u-	2.B-i\	u-	4d\	.	2g/	u-
.	.	.	.	.	.	.	.	4c\	.	.	.
.	.	.	.	.	.	.	.	[2d\	u-	[2b-i\	.
.	.	.	.	.	.	4c\	.	.	.	.	.
=99	=99	=99	=99	=99	=99	=99	=99	=99	=99	=99	=99
2r	.	1r	.	0D	-ser	2d\	-ser	2d\]	.	2b-\]	.
2D\	Par	.	.	.	.	2d\	Par	4c\	.	4a/	.
.	.	.	.	.	.	.	.	4B-i\	.	4g/	.
2D\	ung	1A	Par	.	.	2d\	ung	1A	-ser	1f	-ser
2D\	rap-	.	.	.	.	2d\	rap-	.	.	.	.
=100	=100	=100	=100	=100	=100	=100	=100	=100	=100	=100	=100
1F	-port	2A\	ung	0r	.	2c\	-port	0r	.	0r	.
.	.	2A\	rap-	.	.	4A/	.	.	.	.	.
.	.	.	.	.	.	4B\	.	.	.	.	.
1E	mes-	1G	-port	.	.	1B	mes-	.	.	.	.
=101	=101	=101	=101	=101	=101	=101	=101	=101	=101	=101	=101
1AA	-chant	1A	mes-	0r	.	2A/	-chant	0r	.	0r	.
.	.	.	.	.	.	2c\	dont	.	.	.	.
2C/	dont	1E	-chant	.	.	2c\	fuz	.	.	.	.
2C/	fuz	.	.	.	.	2c\	ser-	.	.	.	.
=102	=102	=102	=102	=102	=102	=102	=102	=102	=102	=102	=102
1GG	ser-	1G	dont	0r	.	2B\	-vi-	1r	.	0r	.
.	.	.	.	.	.	4G/	.	.	.	.	.
.	.	.	.	.	.	4A/	.	.	.	.	.
4GG/	-vi-	2G\	fuz	.	.	4B\	.	1d	Par	.	.
4AA/	.	.	.	.	.	4c\	.	.	.	.	.
4BB/	.	2G\	ser-	.	.	2B\	.	.	.	.	.
4C/	.	.	.	.	.	.	.	.	.	.	.
=103	=103	=103	=103	=103	=103	=103	=103	=103	=103	=103	=103
2D\	.	2F\	-vi-	0r	.	2A/	.	2d\	ung	0r	.
2BB/	.	4E\	.	.	.	2G/	.	2d\	rap-	.	.
.	.	4D\	.	.	.	.	.	.	.	.	.
1AA	.	1E	.	.	.	1A	.	1c	-port	.	.
=104	=104	=104	=104	=104	=104	=104	=104	=104	=104	=104	=104
0D	-e.	0D	-e.	1D	Par	0F	-e,	1d	mes-	2r	.
.	.	.	.	.	.	.	.	.	.	2a/	Par
.	.	.	.	2F/	ung	.	.	1A	-chant	2a/	ung
.	.	.	.	2F/	rap-	.	.	.	.	2a/	rap-
=105	=105	=105	=105	=105	=105	=105	=105	=105	=105	=105	=105
0r	.	0r	.	2E/	-port	1r	.	1c	dont	2g/	-port
.	.	.	.	2F/	mes-	.	.	.	.	2a/	mes-
.	.	.	.	2C/	-chant	2r	.	2c\	fuz	2e/	-chant
.	.	.	.	2C/	dont	2G/	dont	2c\	ser-	2g/	dont
=106	=106	=106	=106	=106	=106	=106	=106	=106	=106	=106	=106
0r	.	0r	.	2G/	fuz	2B\	fuz	2B\	-vi-	2g/	fuz
.	.	.	.	2E/	ser-	2c\	ser-	4A/	.	2g/	ser-
.	.	.	.	.	.	.	.	4G/	.	.	.
.	.	.	.	1D	-vi-	1d	-vi-	1A	.	4f#i/	-vi-
.	.	.	.	.	.	.	.	.	.	4g/	.
.	.	.	.	.	.	.	.	.	.	4a/	.
.	.	.	.	.	.	.	.	.	.	4f#i/	.
=107	=107	=107	=107	=107	=107	=107	=107	=107	=107	=107	=107
1GG	Mieulx	1r	.	1G	-e.	2B\	-e.	0G	-e.	[0g	-e.
.	.	.	.	.	.	2d\	Mieulx	.	.	.	.
2GG/	me	1G	Mieulx	2r	.	2d\	me	.	.	.	.
2GG/	voul-	.	.	2G/	Mieulx	2d\	voul-	.	.	.	.
=108	=108	=108	=108	=108	=108	=108	=108	=108	=108	=108	=108
0C	-droit,	1G	me	2G/	me	[0e	-droit,	0r	.	1g]	.
.	.	.	.	2G/	voul-	.	.	.	.	.	.
.	.	1G	voul-	1c	-droit,	.	.	.	.	2r	.
.	.	.	.	.	.	.	.	.	.	2g/	Mieulx
=109	=109	=109	=109	=109	=109	=109	=109	=109	=109	=109	=109
0r	.	1.c	-droit,	1C	mieulx	0e]	.	0r	.	2g/	me
.	.	.	.	.	.	.	.	.	.	2g/	voul-
.	.	.	.	2C/	me	.	.	.	.	1cc	-droit,
.	.	2B\	de	2C/	voul-	.	.	.	.	.	.
=110	=110	=110	=110	=110	=110	=110	=110	=110	=110	=110	=110
0r	.	2A\	brief	2F/	-droit	0r	.	1r	.	1cc	.
.	.	2G\	fi-	2E/	de	.	.	.	.	.	.
.	.	2F\	-ner	2F/	brief	.	.	1c	Mieulx	1r	.
.	.	2E\	ma	2G/	fi-	.	.	.	.	.	.
=111	=111	=111	=111	=111	=111	=111	=111	=111	=111	=111	=111
1AA	mieulx	2.F\	vi-	2A/	-ner	1r	.	1c	me	1a	mieulx
.	.	.	.	2A/	ma	.	.	.	.	.	.
.	.	4D\	.	.	.	.	.	.	.	.	.
2AA/	me	1E	.	1A	vi-	1A	mieulx	1c	voul-	2cc\	me
2AA/	voul-	.	.	.	.	.	.	.	.	2cc\	voul-
=112	=112	=112	=112	=112	=112	=112	=112	=112	=112	=112	=112
1.D	.	0D	-e	0F	-e	2A/	me	1.f	-droit	2.a/	-droit
.	.	.	.	.	.	2A/	voul-	.	.	.	.
.	.	.	.	.	.	.	.	.	.	4g/	.
.	.	.	.	.	.	3.F/V	-droit	.	.	4a/	.
.	.	.	.	.	.	.	.	.	.	4b\	.
2C/	de	.	.	.	.	6G/	.	2e\	de	2cc\	de
.	.	.	.	.	.	3A/Z	de	.	.	.	.
=113	=113	=113	=113	=113	=113	=113	=113	=113	=113	=113	=113
2BB/	brief	0r	.	0r	.	3.D/V	brief	2d\	brief	3.f/V	brief
2AA/	fi-	.	.	.	.	6E/	.	2c\	fi-	6g/	.
.	.	.	.	.	.	3F/Z	fi-	.	.	3a/Z	fi-
2GG/	-ner	.	.	.	.	2G/	-ner	2B\	-ner	2d/	-ner
2FF/	ma	.	.	.	.	2A/	ma	2A/	ma	[2a/	ma
=114	=114	=114	=114	=114	=114	=114	=114	=114	=114	=114	=114
1GG	vi-	0r	.	0r	.	2D/	vi-	2.B\	vi-	4a/]	.
.	.	.	.	.	.	.	.	.	.	4g/	.
.	.	.	.	.	.	2.d\	.	.	.	1g	vi-
.	.	.	.	.	.	.	.	4G/	.	.	.
1D	.	.	.	.	.	.	.	1A	.	.	.
.	.	.	.	.	.	4c\	.	.	.	.	.
.	.	.	.	.	.	2A/	.	.	.	2f#i/	.
=115	=115	=115	=115	=115	=115	=115	=115	=115	=115	=115	=115
0GG	-e	0r	.	0r	.	0B	-e	0G	-e	0g	-e
=116	=116	=116	=116	=116	=116	=116	=116	=116	=116	=116	=116
1D	Qu'ain-	1D	Qu'ain-	0r	.	2r	.	0r	.	0r	.
.	.	.	.	.	.	2f\	Qu'ain-	.	.	.	.
2D\	-si	1A	-si	.	.	2f\	-si	.	.	.	.
2D\	sans	.	.	.	.	2f\	sans	.	.	.	.
=117	=117	=117	=117	=117	=117	=117	=117	=117	=117	=117	=117
1.C	ces-	1A	sans	1c	Qu'ain-	1.e	ces-	0r	.	0r	.
.	.	[1G	ces-	2c\	-si	.	.	.	.	.	.
4BB/	.	.	.	2c\	sans	4d\	.	.	.	.	.
4AA/	.	.	.	.	.	4c\	.	.	.	.	.
=118	=118	=118	=118	=118	=118	=118	=118	=118	=118	=118	=118
1GG	-se,	2G\]	.	2B\	ces-	0d	-se,	0r	.	2r	.
.	.	4F\	.	4A/	.	.	.	.	.	1g	Qu'ain-
.	.	4E\	.	4G/	.	.	.	.	.	.	.
1r	.	1D	-se	1A	.	.	.	.	.	.	.
.	.	.	.	.	.	.	.	.	.	2f#i/	.
=119	=119	=119	=119	=119	=119	=119	=119	=119	=119	=119	=119
0r	.	0r	.	2G/	-se,	0r	.	1G	Qu'ain-	1g	-si,
.	.	.	.	2G/	qu'ain-	.	.	.	.	.	.
.	.	.	.	2G/	-si	.	.	1d	-si	1r	.
.	.	.	.	2G/	sans	.	.	.	.	.	.
=120	=120	=120	=120	=120	=120	=120	=120	=120	=120	=120	=120
0r	.	0r	.	2.F/	.	0r	.	1d	sans	2r	.
.	.	.	.	.	.	.	.	.	.	2a/	qu'ain-
.	.	.	.	4E/	.	.	.	.	.	.	.
.	.	.	.	4F/	.	.	.	[1c	ces-	2a/	-si
.	.	.	.	4G/	.	.	.	.	.	.	.
.	.	.	.	4A/	.	.	.	.	.	2a/	sans
.	.	.	.	4B\	.	.	.	.	.	.	.
=121	=121	=121	=121	=121	=121	=121	=121	=121	=121	=121	=121
1r	.	1r	.	1c	.	0r	.	2c\]	.	1.g	ces-
.	.	.	.	.	.	.	.	4B\	.	.	.
.	.	.	.	.	.	.	.	4A/	.	.	.
1GG	tel-	1G	tel-	1B	.	.	.	1G	-se	.	.
.	.	.	.	.	.	.	.	.	.	4f/	.
.	.	.	.	.	.	.	.	.	.	4e/	.
=122	=122	=122	=122	=122	=122	=122	=122	=122	=122	=122	=122
2D\	-le	2A\	-le	1A	-se	0r	.	0r	.	2f/	-se
2C/	dou-	2c\	dou-	.	.	.	.	.	.	2e/	tel-
1D	-leur	2B\	-leur	1r	.	.	.	.	.	2f/	-le
.	.	[2A\	mu-	.	.	.	.	.	.	2f/	dou-
=123	=123	=123	=123	=123	=123	=123	=123	=123	=123	=123	=123
0D	mu-	4A\]	.	0r	.	2r	.	0r	.	4f/	-leur
.	.	4G\	.	.	.	.	.	.	.	4e/	.
.	.	4F\	.	.	.	2d\	qu'ain-	.	.	4d/	.
.	.	4E\	.	.	.	.	.	.	.	4c/	.
.	.	1F	.	.	.	2d\	-si	.	.	4d/	mu-
.	.	.	.	.	.	.	.	.	.	4e/	.
.	.	.	.	.	.	2d\	sans	.	.	4f/	.
.	.	.	.	.	.	.	.	.	.	4d/	.
=124	=124	=124	=124	=124	=124	=124	=124	=124	=124	=124	=124
0AA	-er,	0E	-er,	1r	.	1.c	ces-	1r	.	1e	-er,
.	.	.	.	1A	tel-	.	.	1c	tel-	1cc	tel-
.	.	.	.	.	.	4B\	.	.	.	.	.
.	.	.	.	.	.	4A/	.	.	.	.	.
=125	=125	=125	=125	=125	=125	=125	=125	=125	=125	=125	=125
!	!	!	!	!LO:TX:Z=6:t=2nd note of m. lacking in all sources	!	!	!	!	!	!	!
0r	.	0r	.	2G/	-le	2B\	-se	2d\	-le	2b\	-le
.	.	.	.	2F/	dou-	2c\	tel-	2f\	dou-	2a/	dou-
.	.	.	.	2C/	-leur	2c\	-le	2e\	-leur	2cc\	-leur
.	.	.	.	[2G	mu-	2G/	dou-	[2d\	mu-	[2b\	mu-
=126	=126	=126	=126	=126	=126	=126	=126	=126	=126	=126	=126
1r	.	0r	.	4G]	.	1d	-leur	4d\]	.	4b\]	.
.	.	.	.	4A	.	.	.	4c\	.	4a/	.
.	.	.	.	2F	.	.	.	4B\	.	1a	.
.	.	.	.	.	.	.	.	4A/	.	.	.
1E	tel-	.	.	1E	.	1e	mu-	1B	.	.	.
.	.	.	.	.	.	.	.	.	.	2g#i/	.
=127	=127	=127	=127	=127	=127	=127	=127	=127	=127	=127	=127
!	!	!	!	!	!	!	!	!LO:N:vis=0	!	!	!
2.F\	-le	1r	.	1A	-er,	2c\	-er,	[0Al	-er.	[0al	-er.
.	.	.	.	.	.	2c\	tel-	.	.	.	.
4E\	dou-	.	.	.	.	.	.	.	.	.	.
2D\	-leur	1A	tel-	1r	.	2f\	-le	.	.	.	.
2D\	mu-	.	.	.	.	2f\	dou-	.	.	.	.
=128	=128	=128	=128	=128	=128	=128	=128	=128	=128	=128	=128
2AA/	-er,	2A\	-le	1A	tel-	2.e\	-leur	0A_	.	0a_	.
2AA/	tel-	2.c\	dou-	.	.	.	.	.	.	.	.
.	.	.	.	.	.	4d\	.	.	.	.	.
2AA/	-le	.	.	2c\	-le	2e\	.	.	.	.	.
.	.	4B\	.	.	.	.	.	.	.	.	.
2AA/	dou-	[2A\	-leur	2c\	dou-	[2f\	mu-	.	.	.	.
=129	=129	=129	=129	=129	=129	=129	=129	=129	=129	=129	=129
1D	-leur	4A\]	.	1d	-leur	4f\]	.	0A_	.	0a_	.
.	.	4G\	.	.	.	4e\	.	.	.	.	.
.	.	4F\	.	.	.	4d\	.	.	.	.	.
.	.	4E\	.	.	.	4c\	.	.	.	.	.
1D	mu-	1F	mu-	2.A/	mu-	4d\	.	.	.	.	.
.	.	.	.	.	.	4e\	.	.	.	.	.
.	.	.	.	.	.	4f\	.	.	.	.	.
.	.	.	.	4B\	.	4d\	.	.	.	.	.
=130	=130	=130	=130	=130	=130	=130	=130	=130	=130	=130	=130
0AAl	-er.	0El	-er.	0cl	-er.	0el	-er.	0A]	.	0a]	.
==	==	==	==	==	==	==	==	==	==	==	==
*-	*-	*-	*-	*-	*-	*-	*-	*-	*-	*-	*-
!!!RDF**kern: l=long note in original notation
!!!RDF**kern: i=editorial accidental
!!!ENC: Will Watson 08/09/2011
!!!END: 2011/09/08/
!!!EED: Jesse Rodin
!!!EEV: 2011/11/02/
!!attribution-level@Jos: 2 (provisionally attributable [parentheses checkmark])
!!!ONB: Translated from MusicXML and edited on 2011/11/02/ by Craig Sapp
!!muse2ps: C^@{COA}\n@{SCT}^i2I150v85,85,85,85,85,100z18l2550t200c115
